X:1319
T:Behind the Bush in the Garden
R:Jig
O:England
M:6/8
A:Lancashire
B:Winder
K:D
A | d2e f2d | g2e fed | d2e fed | c3 e2A | \
d2e f2d | g2e f2d | faf gec | d3 d2 :|*
|:g | fed cBA | BcB A2g | fed cBA | B2c d2g | \
fed cBA | BcB A2g | faf gec | d3 d2 :|**
